X:3394
T:La fille du Fermier
O:england
M:3/4
L:1/4
K:G
GAB|c>Bc|dcB|ABc|d3|ded|c2B|A3-|A3:|
|:ded|G2A|BAG|=F2G|A2d|c2 A/B/|cBA|G3-|G3:|
|:GG/F/ G/A/|BGD|B B/A/ B/c/|d2B/c/|d d/e/ d/c/|
B/G/ B/d/ c/B/|A/F/ A/c/ B/A/|1 BGD:|2 G3-|G3||


